X: 1
T:The Lea Rig   "BMW Setting Bob Smith Borthwick & Dist P.B.    "
M:C
L:1/8
Q:80
C:Robert Burns
S:March
K:HP
[| e|
{g}f3A{GAG}A2{g}Bc|
{Gdc}d3e{Gdc}d2f|
{gf}g2{a}f2{ag}a3f|  !
{gef}e3d2{gBd}B2{g}de|
{g}f3A{GAG}{g}Bc|
{Gdc}d3e{Gdc}d3f|  !
{gf}g2{a}f{ag}a3f|
{gef}e3d{gde}d3|]
f|  !
{gf}g2f{gf}g2{ag}a2|
{g}g3f{g}f3d|
{gef}e3{ag}a{g}gf{gef}ed|  !
{gf}g2B2{GdG}B2{ag}ag|
{a}g2{ag}a2A2{g}Bc|
{Gdc}d3e{Gdc}d3f|  !
{gf}g2{a}f2{ag}a3f|
{gef}e3d{gde}d2|]
